public/assets/nfl-logos/cowboys.svg

<?xml version="1.0" encoding="UTF-8"?>
<svg id="Layer" xmlns="http://www.w3.org/2000/svg" viewBox="0 0 420 503.17">
  <defs>
    <style>
      .cls-1 {
        fill: #024;
      }

      .cls-1, .cls-2 {
        stroke-width: 0px;
      }

      .cls-2 {
        fill: #fffffe;
      }
    </style>
  </defs>
  <path class="cls-2" d="m420,151.72h-159.27L210,0l-50.74,151.72H0l130.49,93.42-50.09,151.81,129.6-92.58,129.61,92.4-50.11-151.62,130.49-93.42"/>
  <path class="cls-1" d="m210,18.06l-46.66,139.33H17.62l119.54,85.58-45.98,139.32,118.84-84.87,118.8,84.87-45.99-139.32,119.55-85.58h-145.72L210,18.06"/>
  <path class="cls-2" d="m210,56.46l-37.52,112.85H54.44l96.83,69.32-37.24,112.85,96.25-68.74,95.67,68.74-37.24-112.84,96.84-69.32h-118.04l-37.52-112.85"/>
  <path class="cls-1" d="m210,89.64l-29.49,89.15h-93.23l76.49,54.76-29.43,89.15,76.05-54.31,75.27,54.31-29.43-89.15,76.49-54.77h-93.23l-29.49-89.15"/>
</svg>

<?xml version="1.0" encoding="UTF-8" standalone="no"?>
<svg
   id="Layer"
   viewBox="0 0 420 396.95"
   version="1.1"
   width="420"
   height="396.95001"
   xmlns="http://www.w3.org/2000/svg"
   xmlns:svg="http://www.w3.org/2000/svg">
  <defs
     id="defs1">
    <style
       id="style1">
      .cls-1 {
        fill: #024;
      }

      .cls-1, .cls-2 {
        stroke-width: 0px;
      }

      .cls-2 {
        fill: #fffffe;
      }
    </style>
  </defs>
  <path
     class="cls-2"
     d="M 420,151.72 H 260.73 L 210,0 159.26,151.72 H 0 L 130.49,245.14 80.4,396.95 210,304.37 339.61,396.77 289.5,245.15 419.99,151.73"
     id="path1" />
  <path
     class="cls-1"
     d="M 210,18.06 163.34,157.39 H 17.62 l 119.54,85.58 -45.98,139.32 118.84,-84.87 118.8,84.87 -45.99,-139.32 119.55,-85.58 H 256.66 L 210,18.06"
     id="path2" />
  <path
     class="cls-2"
     d="M 210,56.46 172.48,169.31 H 54.44 l 96.83,69.32 -37.24,112.85 96.25,-68.74 95.67,68.74 -37.24,-112.84 96.84,-69.32 H 247.51 L 209.99,56.47"
     id="path3" />
  <path
     class="cls-1"
     d="m 210,89.64 -29.49,89.15 H 87.28 l 76.49,54.76 -29.43,89.15 76.05,-54.31 75.27,54.31 -29.43,-89.15 76.49,-54.77 H 239.49 L 210,89.63"
     id="path4" />
</svg>
